X:117
T:The three Maries
T:very pretty for 2nd. part v. the other book p.1
Z:Jack Campin - http://www.campin.me.uk
S:Blaikie MS (NLS MS.1578) p35, Blaikie #111
M:6/8
L:1/8
V:1 midi program 1 74
V:2 midi program 1 46 bass middle = d transpose -24
Q:3/8=72
K:D Minor
[V:1] A|d2d edc|d3  A2A|d2d edc|d3 F2
[V:2] z|d3  A3 |D3  d2z|d2f a2A|d3 a2
%
[V:1] G|A2A ABc|G2G GFG|AAA ABc|d3 z2|]
[V:2] g|f3  f3 |c3  c'3|f2d a2A|D3 z2|]
W:Transcription (c) Jack Campin 2009, no mirroring or republication without permission

